!!!OTL: SO WILLST DU WIEDER EINSAM MICH VERLASSEN
!!!ARE: Europa, Mitteleuropa, Deutschland, Hessen
!!!SCT: E1381A
!!!YEM: Copyright 1995, estate of Helmut Schaffrath.
**kern
*ICvox
*Ivox
*M2/4
*k[f#c#]
*D:
{8a
8a
8b
=1
4.a
8f#
=2
8.b
16a
8g
8e
=3
8e
8f#
4f#
=4
8r}
{8d
8e
8f#
=5
4.g
8a
=6
4f#
8.a
16f#
=7
4e
4r
=8
8r}
{8a
8a
8b
=9
4.a
8f#
=10
8.b
16a
8g
8e
=11
8e
8f#
4f#
=12
8r}
{8dd
8cc#
8b
=13
4.a
8a
=14
8g#
8b
8dd
8g#
=15
4a
4r
=16
8r}
{8a
8a
8cc#
=17
4.ee
8dd
=18
8cc#
8b
8a
8g
=19
8b
8a
4f#
=20
8r}
{8a
8a
8cc#
=21
4.ee
8dd
=22
8cc#
8b
8a
8g
=23
8b
8a
4f#
=24
8r}
{8a
8b
8cc#
=25
4.dd
8dd
=26
8.ff#
16ee
8dd
8cc#
=27
4b
4r
=28
8r}
{8b
8cc#
8dd
=29
4.a
8a
=30
8cc#
8b
8a
8g
=31
4f#
4r
=32
8r}
==
!!!AGN: Staende -, Soldaten -, Kriegs - Lied
!!!ONB: ESAC (Essen Associative Code) Database: ERK3
!!!AMT: simple duple
!!!AIN: vox
!!!EED: Helmut Schaffrath
!!!EEV: 1.0
*-
